!!!COM: Schubert, Franz
!!!CNT: Deutscher
!!!TXO: Deutsch
!!!OTL: "Fruehlingssehnsucht"
!!!LYR: Rellstab, Ludwig
!!!OPR: Schwanengesang
!!!ONM: No. 3
!!!ODT: 1828/
!!NB: Vocal melody only encoded.
**kern	**silbe
*clefG2	*
*k[b-e-]	*
*M2/4	*
*MM[geschwind]	*
=13	=13
{4dd	{Sau-
8cc	-seln-
8cc	-de
=14	=14
4b-	Lu2f-
4a	-te
=15	=15
4b-	we-
8cc	-hend
8cc	so
=16	=16
4a}	mild}
4r	.
=17	=17
{4ee-	{blu-
8dd	-mi-
8dd	-ger
=18	=18
4cc	Du2f-
4g	-te
=19	=19
4b-	ath-
8cc	-mend
8cc	er-
=20	=20
4dd}	-fu2llt!}
4r	.
=23	=23
{4cc	sa2u-
8b-	-seln-
8b-	-de
=24	=24
4f	Lu2f-
4b-	-te
=25	=25
4ee-	we-
8ee-	-hend
8ee-	so
=26	=26
(4ee-	mild,
8dd)}	|}
8r	.
=27	=27
{4cc	{blu-
8b-	-mi-
8b-	-ger
=28	=28
4f	Du2f-
4b-	-te
=29	=29
4ee-	ath-
8ee-	-mend
8ee-	er-
=30	=30
(4ee-	-fu2llt!
8dd)}	|}
8r	.
=32	=32
4r	.
8r	.
{8dd	{Wie
=33	=33
4ff	haucht
8cc	ihr
8cc	mich
=34	=34
4dd	won-
8b-	-nig
8b-	be-
=35	=35
4.ff	-gru2-
8cc	-ssend
=36	=36
4dd}	an!}
8r	.
{8dd	{wie
=37	=37
4gg	habt
8dd	ihr
8dd	dem
=38	=38
4ee-	po-
8ee-	-chen-
8ee-	-den
=39	=39
4ee-	Her-
8ee-	-zen
8ff	ge-
=40	=40
2ee-}	-than?}
=41	=41
4r;	.
8r	.
{8en	{es
=42	=42
4f	mo2ch-
8b-	-te
8dd	euch
=43	=43
4ff	fol-
8dd	-gen
8dd	auf
=44	=44
4cc	luf-
8b-	-ti-
8cc	-ger
=45	=45
4dd}	Bahn,}
8r	.
{8f	{es
=46	=46
4f	mo2ch-
8a	-te
8dd	euch
=47	=47
4ff	fol-
8een	-gen
8een	auf
=48	=48
4dd	luf-
8cc#	-ti-
8cc#	-ger
=49	=49
4dd}	Bahn.}
8r	.
{8dd	{Wo-
=50	=50
[2ee-	-hin?
=51	=51
4.ee-]	|
8ee-	wo-
=52	=52
(4ff-	-hin?
4ee-)}	|}
=58	=58
{4ee-	{Rast-
8cc	-lo-
8cc	-ses
=59	=59
4b-	Seh-
4a	-nen!
=60	=60
4b-	wu2n-
8cc	-schen-
8cc	-des
=61	=61
4a}	Herz,}
4r	.
=62	=62
{4ee-	{im-
8dd-	-mer
8dd-	nur
=63	=63
4cc	Thra2-
4a	-nen,
=64	=64
4b-	Kla-
8cc	-ge
8cc	und
=65	=65
4dd-}	Schmerz?}
4r	.
=68	=68
{4ee-	Rast-
8dd-	-lo-
8dd-	-ses
=69	=69
4a-	Seh-
4dd-	-nen!
=70	=70
4gg-	wu2n-
8gg-	schen-
8gg-	-des
=71	=71
(4gg-	Herz,
8ff)}	|}
8r	.
=72	=72
{4ee-	{im-
8dd-	-mer
8dd-	nur
=73	=73
4a-	Thra2-
4dd-	-nen,
=74	=74
4gg-	Kla-
8gg-	-ge
8gg-	und
=75	=75
(4gg-	Schmerz?
8ff)}	|}
8r	.
=77	=77
4r	.
8r	.
{8ddn	Auch
=78	=78
4ff	ich
8cc	bin
8cc	mir
=79	=79
4dd	schwel-
8b-	-len-
8b-	-der
=80	=80
4ff	Trie-
8cc	-be
8cc	be-
=81	=81
4dd}	-wusst!}
8r	.
{8dd	{wer
=82	=82
4gg	stil-
8dd	-let
8dd	mir
=83	=83
4ee-	end-
8ee-	-lich
8ee-	die
=84	=84
4ee-	dra2n-
8ee-	-gen-
8ff-	-de
=85	=85
2ee-}	Lust?}
=86	=86
4r;	.
{4een	{Nur
=87	=87
4ff	du
8dd	be-
8b-	|
=88	=88
4f	-freist
4b-	den
=89	=89
4cc	Lenz
8dd	in
8ee-	der
=90	=90
4.dd}	Brust,}
{8ff	{nur
=91	=91
4.aa	du
8gg	be-
=92	=92
4ff	-freist
4een	den
=93	=93
4dd	Lenz
8cc#	in
8cc#	der
=94	=94
4dd}	Brust,}
8r	.
{8dd	{nur
=95	=95
[2ee-	du,
=96	=96
4ee-]	|
4gg-	nur
=97	=97
[2ff	du!
=98	=98
2ff_	|
=99	=99
4ff]}	|}
4r	.
*-	*-
